blockchains/ethereum/assets/0x418D75f65a02b3D53B2418FB8E1fe493759c7605/logo.svg

<svg fill="none" height="250" viewBox="0 0 250 250" width="250" xmlns="http://www.w3.org/2000/svg" xmlns:xlink="http://www.w3.org/1999/xlink"><clipPath id="a"><path d="m0 0h250v250h-250z"/></clipPath><g clip-path="url(#a)"><path d="m125 250.001c69.036 0 125-55.965 125-125.001 0-69.0354-55.964-125-125-125-69.0356 0-125 55.9646-125 125 0 69.036 55.9644 125.001 125 125.001z" fill="#f3ba2f"/><g fill="#fff"><path d="m92.6318 111.701 32.3682-32.3676 32.383 32.3816 18.833-18.833-51.216-51.2152-51.2001 51.1999 18.8325 18.8333zm-50.9651 13.299 18.8339-18.837 18.8326 18.833-18.8339 18.834zm50.9651 13.301 32.3682 32.366 32.382-32.382 18.843 18.824-.009.01-51.216 51.214-51.2001-51.2-.0267-.026 18.8606-18.808zm78.0342-13.293 18.834-18.834 18.832 18.833-18.833 18.834z"/><path d="m144.101 124.99h.008l-19.11-19.111-14.124 14.121-1.623 1.624-3.346 3.347-.027.026.027.027 19.093 19.097 19.111-19.111.009-.01-.017-.01"/></g></g></svg>

<svg width="250" height="250" viewBox="0 0 250 250" fill="none" xmlns="http://www.w3.org/2000/svg">
<g clip-path="url(#clip0_9_588)">
<path d="M125 250.001C194.036 250.001 250 194.036 250 125C250 55.9646 194.036 0 125 0C55.9644 0 0 55.9646 0 125C0 194.036 55.9644 250.001 125 250.001Z" fill="#F3BA2F"/>
<path d="M92.6318 111.701L125 79.3334L157.383 111.715L176.216 92.882L125 41.6668L73.7999 92.8667L92.6324 111.7L92.6318 111.701ZM41.6667 125L60.5006 106.163L79.3332 124.996L60.4993 143.83L41.6667 125ZM92.6318 138.301L125 170.667L157.382 138.285L176.225 157.109L176.216 157.119L125 208.333L73.7999 157.133L73.7732 157.107L92.6338 138.299L92.6318 138.301ZM170.666 125.008L189.5 106.174L208.332 125.007L189.499 143.841L170.666 125.008Z" fill="white"/>
<path d="M144.101 124.99H144.109L124.999 105.879L110.875 120L109.252 121.624L105.906 124.971L105.879 124.997L105.906 125.024L124.999 144.121L144.11 125.01L144.119 125L144.102 124.99" fill="white"/>
</g>
<defs>
<clipPath id="clip0_9_588">
<rect width="250" height="250" fill="white"/>
</clipPath>
</defs>
</svg>
